!! Isochronous pitch passage.
!! Solo-line.
!! From C.J. Andersen, Eighteen Studies for Flute Opus 41, No. 9;
!! Flute
!! 2/4 meter
**kern	**metpos
*M2/4	*M2/4
*tb16	*tb16
=1	=1
16ee	1
16gg#	4
16bb	3
16gg#	4
16ee	2
16aa	4
16ccc#	3
16aa	4
=2	=2
16ee	1
16gg#	4
16bb	3
16gg#	4
16cc#	2
16ee	4
16aa	3
16ee	4
=3	=3
16b	1
16ee	4
16gg#	3
16ee	4
16ff#	2
16dd#	4
16b	3
16dd#	4
=4	=4
16ee	1
16b	4
16g#	3
16b	4
16ee	2
16gg#	4
16bb	3
16eee	4
=5	=5
16ee	1
16gg#	4
16bb	3
16gg#	4
16ee	2
16aa	4
16ccc#	3
16aa	4
=6	=6
16ee	1
16gg#	4
16bb	3
16gg#	4
16ff#	2
16aa#	4
16ccc#	3
16eee	4
=7	=7
16ddd#	1
16bb	4
16ff#	3
16bb	4
16ccc#	2
16aa#	4
16ff#	3
16aa#	4
=8	=8
16bb	1
16fff#	4
16ddd#	3
16b	4
16ff#	2
16dd#	4
16b	3
16f#	4
=9	=9
16b	1
16dd#	4
16ff#	3
16dd#	4
16b	2
16ee	4
16gg#	3
16ee	4
=10	=10
16dd#	1
16aa	4
16cc#	3
16aa	4
16ee	2
16gg#	4
16bb	3
16gg#	4
=11	=11
16cc#	1
16gg#	4
16bb	3
16gg#	4
16dd#	2
16ff##	4
16aa#	3
16ff##	4
=12	=12
16gg#	1
16bb	4
16ddd#	3
16bb	4
16gg#	2
16dd#	4
16b	3
16g#	4
=13	=13
16cc#	1
16ee	4
16gg#	3
16ee	4
16dd#	2
16ff##	4
16aa#	3
16ff#	4
=14	=14
16gg#	1
16bb	4
16ddd#	3
16bb	4
16aan	2
16ee	4
16cc#	3
16ee	4
=15	=15
16gg#	1
16dd#	4
16gg#	3
16bb	4
16ff##	2
16dd#	4
16ff##	3
16aa#	4
=16	=16
16gg#	1
16bb	4
16ddd#	3
16bb	4
16gg#	2
16bb	4
16gg#	3
16dd#	4
=17	=17
*-	*-
